X:602
T:Owl Creek
S:Bruce & Emmett's Drummers and Fifers Guide (1862), p. 60
M:6/8
L:1/8
Q:1/8=270
K:D
%%MIDI program 72
%%MIDI transpose 8
%%MIDI ratio 3 1
(3(A/B/c/)|def edB|{ABc}d2F E2F|DFA {B}A^GA|B<e^d e=dB|{ABc}def edB|
{A/B/c/}d2F E2F|DFA {B}A^GA|B<ec d2::e|fdf afd|gfg bag|
fdf afd|cde e2A|fdf afd|gfg bag|faf ede|fdd d2:|
